public/static/img/follow/bot.svg

<svg width="40" height="40" viewBox="0 0 40 40" fill="none" xmlns="http://www.w3.org/2000/svg">
<path fill-rule="evenodd" clip-rule="evenodd" d="M0 16C0 7.16344 7.16344 0 16 0H24C32.8366 0 40 7.16344 40 16V24C40 32.8366 32.8366 40 24 40H16C7.16344 40 0 32.8366 0 24V16Z" fill="#0E0F18"/>
<g clip-path="url(#clip0_726_1708)">
<path d="M9.69363 22.2261C8.90238 22.2344 8.14011 21.9287 7.57382 21.376C7.00754 20.8233 6.68342 20.0687 6.67248 19.2775C6.63989 17.5677 7.92302 16.243 9.69511 16.1971V22.2275L9.69363 22.2261ZM29.9052 22.2053V16.2342C31.5025 16.1008 32.9456 17.5099 32.9619 19.1738C32.9767 20.8777 31.5573 22.309 29.9052 22.2053ZM23.7548 17.6477C23.5464 17.6428 23.3392 17.6792 23.145 17.7548C22.9508 17.8304 22.7735 17.9437 22.6233 18.0882C22.4732 18.2327 22.3531 18.4056 22.2701 18.5967C22.1871 18.7879 22.1428 18.9936 22.1397 19.202C22.1323 20.0554 22.8658 20.7948 23.7311 20.8022C24.1527 20.8038 24.5579 20.6389 24.8586 20.3435C25.1594 20.048 25.3314 19.6458 25.3372 19.2242C25.3413 19.0155 25.3031 18.8082 25.2249 18.6147C25.1467 18.4212 25.0302 18.2456 24.8824 18.0983C24.7345 17.951 24.5584 17.8351 24.3646 17.7577C24.1709 17.6803 23.9634 17.6428 23.7548 17.6477ZM14.3239 19.2449C14.326 19.4535 14.3696 19.6595 14.4521 19.851C14.5347 20.0425 14.6546 20.2157 14.8048 20.3604C14.955 20.5051 15.1325 20.6184 15.327 20.6937C15.5214 20.7691 15.729 20.8049 15.9374 20.7992C16.3593 20.7876 16.76 20.6116 17.0539 20.3088C17.3479 20.006 17.5119 19.6003 17.511 19.1783C17.4947 18.307 16.779 17.6314 15.8737 17.6417C15.665 17.6393 15.4579 17.6795 15.2653 17.7599C15.0726 17.8403 14.8984 17.9592 14.7533 18.1093C14.6082 18.2594 14.4952 18.4375 14.4214 18.6328C14.3476 18.8281 14.3144 19.0364 14.3239 19.2449ZM16.6234 26.8904V25.5228C16.3701 25.508 16.136 25.4887 15.9048 25.4858C14.6721 25.4828 13.4378 25.4917 12.2051 25.4828C11.4553 25.4754 11.202 25.2309 11.202 24.5019C11.199 20.9829 11.199 17.4639 11.202 13.9405C11.202 13.1745 11.4405 12.9552 12.251 12.9552C14.6498 12.9522 17.0472 12.9552 19.5483 12.9552C19.5483 11.9269 19.5587 11.7536 19.532 10.7593C19.5275 10.6527 19.3142 10.5238 19.1779 10.4452C18.4163 10.0259 18.0829 9.35027 18.2889 8.60054C18.3756 8.25699 18.575 7.95241 18.8551 7.73541C19.1352 7.51841 19.4799 7.4015 19.8342 7.40334C20.5632 7.41371 21.1915 7.916 21.3633 8.62276C21.55 9.38731 21.2092 10.0481 20.4491 10.46C20.2891 10.5489 20.0758 10.7416 20.0728 10.8868C20.0358 11.8202 20.055 11.9358 20.055 12.9478H27.3004C28.2057 12.9478 28.4295 13.1582 28.4324 14.0679C28.4385 17.4793 28.4385 20.8906 28.4324 24.3019C28.4324 25.2754 28.2117 25.4754 27.2086 25.4769C25.8884 25.4813 24.5682 25.4843 23.248 25.4917C23.1828 25.4917 23.1221 25.5198 23.008 25.551V26.9897C23.4821 26.9897 23.9563 26.9867 24.4289 26.9897C24.989 26.9941 25.2883 27.2742 25.2913 27.8387C25.2957 29.0833 25.2913 29.51 25.2957 30.7576C25.2957 31.3562 24.9697 31.6466 24.3949 31.6466C21.3337 31.651 18.2755 31.651 15.2114 31.6466C14.6291 31.6466 14.3239 31.3562 14.3298 30.7487C14.3431 29.5233 14.3268 29.1188 14.3372 27.8965C14.3431 27.2282 14.5758 27.0104 15.2647 26.9926C15.6796 26.9823 16.1004 26.9778 16.5197 26.9689C16.5271 26.9704 16.5449 26.9482 16.6234 26.8889V26.8904Z" fill="white"/>
</g>
<defs>
<clipPath id="clip0_726_1708">
<rect width="26.6645" height="26.6645" fill="white" transform="translate(6.67188 6.66602)"/>
</clipPath>
</defs>
</svg>

<svg width="40" height="40" fill="none" xmlns="http://www.w3.org/2000/svg"><path fill-rule="evenodd" clip-rule="evenodd" d="M0 16C0 7.163 7.163 0 16 0h8c8.837 0 16 7.163 16 16v8c0 8.837-7.163 16-16 16h-8C7.163 40 0 32.837 0 24v-8Z" fill="#0E0F18"/><g clip-path="url(#a)"><path d="M9.694 22.226a2.99 2.99 0 0 1-3.022-2.948c-.032-1.71 1.251-3.035 3.023-3.08v6.03l-.001-.002Zm20.211-.02v-5.972c1.598-.133 3.04 1.276 3.057 2.94.015 1.704-1.405 3.135-3.057 3.031Zm-6.15-4.558a1.578 1.578 0 0 0-1.615 1.554c-.008.853.726 1.593 1.591 1.6a1.6 1.6 0 0 0 1.494-2.187 1.548 1.548 0 0 0-1.47-.967Zm-9.431 1.597a1.572 1.572 0 0 0 1.613 1.554 1.618 1.618 0 0 0 1.574-1.62c-.016-.872-.732-1.548-1.637-1.537a1.534 1.534 0 0 0-1.55 1.603Zm2.3 7.645v-1.367c-.254-.015-.488-.034-.72-.037-1.232-.003-2.466.006-3.699-.003-.75-.008-1.003-.252-1.003-.981-.003-3.52-.003-7.038 0-10.561 0-.767.239-.986 1.049-.986 2.399-.003 4.796 0 7.297 0 0-1.028.01-1.201-.016-2.196-.005-.106-.218-.235-.354-.314-.762-.42-1.095-1.095-.89-1.844a1.585 1.585 0 0 1 1.546-1.198c.73.01 1.358.513 1.53 1.22.186.764-.155 1.425-.915 1.837-.16.089-.373.282-.376.427-.037.933-.018 1.049-.018 2.06H27.3c.906 0 1.13.211 1.132 1.12.007 3.412.007 6.824 0 10.235 0 .973-.22 1.173-1.223 1.175-1.32.004-2.64.007-3.961.015-.065 0-.126.028-.24.059v1.439c.474 0 .948-.003 1.42 0 .561.004.86.284.863.849.005 1.244 0 1.671.005 2.919 0 .598-.326.889-.901.889-3.061.004-6.12.004-9.184 0-.582 0-.887-.29-.881-.898.013-1.226-.003-1.63.007-2.852.006-.669.239-.887.928-.904.415-.01.835-.015 1.255-.024.007.001.025-.02.103-.08v.001Z" fill="#fff"/></g><defs><clipPath id="a"><path fill="#fff" transform="translate(6.672 6.666)" d="M0 0h26.665v26.665H0z"/></clipPath></defs></svg>
